X: 8541
T: Crib Of Perches, The
R: reel
M: 4/4
K: Dmixolydian
|:A3B AGFD|(3EFG AB c3A|G2EC G,CEG|cAGc AGFG|
A2GB AGFD|(3EFG AB c2Ac|dfec dcAc|1 BdAG FDDF:|2 B2AG FDD2||
|:df~f2 af~f2|Adfa gfed|(3Bcd ef ge^de|be^de ^cAAc|
df~f2 ~a3f|Adaf gfed|(3Bcd ge dBcB|1 AFGE D3A:|2 AFGE D4||

